X:275
T: Siji xiaochang
N: C1772
O: China,Shandong Pingdu
S: III, 351]
R: Xiaodiao, Siji ge]
M: 2/4
L: 1/16
K: G
G2GEdedB | A8 |
B2BABABd | G6
E2 | B3dB2E2 | d3BA2G2 | A2AEA2GE | D8 |
A2AFE2G2 | A3dF4 |
B3dB2A2 | A2F2E4 |
B2E2B2d2 | A2E2G4 |
A2F2EDE2 | D8 |
B3ge2d2 | d2d2G4 |
B2E2B2d2 | A2E2G4 |
A2F2EDE2 | d8

@@@ Tune index: 6830
